X:19
T:Jessie Smith
T:Jesse Smith
T:Miss Jessie Smith
R:strathspey
O:Scotland
Z:id:hn-strathspey-19
M:C
L:1/8
K:D
A<F F>E D>A G/F/E/D/ | A<F F>A B2 B<d | A<F F>E D>A G/F/E/D/ | D>B A<F E2 E2 :|
d>e f>d B>e d/c/B/A/ | d>e f<d B2 B2 | d>e f>d B>e d/c/B/A/ | d>B A<F E2 E2 |
d>e f>d B>e d/c/B/A/ | d>e f<d B2 B>g | (3fed (3cde (3dcB (3ABc | d>B A<F E2 E2 ||

